X: 1
T:O'er The Hills And Far Away. JMT103
M:4/4
L:1/8
Q:210
S:J.Moore,Tyneside,1841.(72)
R:Reel
O:England
A:Northumbria
Z:C.G.P
K:G
DE|G3A GABA|G2E2E2DE|G3A GABG|B2A2A2DE|!G3A GABG|G2E2c4|E2D2DEGA|B2A2A2:
|
|:Bc|d3e dcBA|!G2E2E2Bc|d3e dBAG|B2A2A2Bc|d3e dcBA|G2E2c4|!E2D2 DEGA|B2A
2A2:|
|:DE|GABA GABA|G2E2E2DE|!GABA GABA|B2A2A2DE|GABA GABA|!AGFEc4|D2D2DEGA|B
2A2A2:|
|:Bc|dgfe dBAB|!G2E2E2Bc|dgfe dBAG|B2A2A2Bc|!dgfe dcBA|G2E2c4|E2D2DEGA|B
2A2A2:|]
